src/images/std-icons/std-excellent.svg

<svg xmlns="http://www.w3.org/2000/svg" width="512" height="512" viewBox="0 0 512 512">
  <title>excellent</title>
  <path fill="#000" fill-rule="nonzero" d="M417.898667,182.208 C403.812782,185.132851 392.157702,194.975396 386.915653,208.372703 C381.673605,221.77001 383.554116,236.908711 391.914667,248.61632 L351.453867,277.276373 L270.850987,189.193173 C290.213669,182.004411 301.646987,161.978924 297.995068,141.650244 C294.343149,121.321563 276.654738,106.527611 256.00064,106.527611 C235.346542,106.527611 217.658131,121.321563 214.006212,141.650244 C210.354293,161.978924 221.787611,182.004411 241.150293,189.193173 L160.547413,277.276373 L120.085333,248.615893 C132.39058,231.537662 130.687715,208.095957 116.043466,192.975406 C101.399218,177.854854 78.0240011,175.402814 60.5607919,187.155321 C43.0975827,198.907828 36.5672849,221.485881 45.0606835,240.745873 C53.5540822,260.005864 74.6292128,270.410292 95.0839467,265.441493 L124.118613,388.841173 C126.392353,398.504429 135.015351,405.333333 144.942507,405.333333 L367.057493,405.333333 C376.98433,405.333333 385.606867,398.504119 387.880533,388.841173 L416.9152,265.441493 C433.93688,269.450973 451.681188,262.661584 461.678959,248.313829 C471.67673,233.966073 471.9012,214.96855 462.245232,200.388571 C452.589264,185.808591 435.010332,178.601832 417.898667,182.208 Z"/>
</svg>

<svg xmlns="http://www.w3.org/2000/svg" viewBox="0 0 512 512">
  <title>
    excellent
  </title>
  <path d="M417.9 182.2a42.56 42.56 0 0 0-25.99 66.42l-40.46 28.66-80.6-88.09a42.67 42.67 0 1 0-29.7 0l-80.6 88.09-40.46-28.66a43.46 43.46 0 1 0-25 16.82l29.03 123.4a21.4 21.4 0 0 0 20.82 16.5h222.12a21.4 21.4 0 0 0 20.82-16.5l29.04-123.4a42.64 42.64 0 1 0 .98-83.23z"/>
</svg>
